X:1
T:MENUETT No. 1 mit TRIO
T:ANDANTE in C MAJOR
T:für das Pianoforte
T:W. A. Mozart
T:Köch. Verz. No. 1a
C:W. A. Mozart
Z:Köch. Verz. No. 1
%%score { 1 | 2 }
L:1/8
Q:1/4=67
M:3/4
K:C
V:1 treble nm="Piano" snm="Pno."
V:2 bass 
V:1
 Gc/G/ G2 TF2 | Gc/G/ G2 TF2 | E/F/^F/G/ G2 T=F2 | E/F/^F/G/ G2 T=F2 | %4
[M:2/4]{/F} ED/C/{/E} DC/B,/ | C/E/C[K:bass] C/G,/_B, | _B,2 A,G,/F,/ | %7
 E,/C/G,/_B,/{/B,} A,G,/F,/ | E,2 D,2 | C,2 z2 |] %10
V:2
 CE/C/ D2 G,2 | CE/C/ D2 G,2 | C2 B,2 G,2 | C2 B,2 G,2 |[M:2/4] CA, F,G, | C,C, E,C, | %6
 z F, D,_B,, | C,E,, F,,2 | G,,4 | C,,2 z2 |] %10

